X:1
T:7 Lieder, Op.48
T:Herbstgefühl
T:Johannes Brahms (1833-1897)
T:Adolf Friedrich von Schack
T:7 Lieder, Op.48
T:7. Herbstgefühl
T:Creative Commons copyright waiver (CC0 1.0 Universal) 
T:Creative Commons copyright waiver (CC0 1.0 Universal) 
T:Creative Commons copyright waiver (CC0 1.0 Universal) 
T:Creative Commons copyright waiver (CC0 1.0 Universal) 
C:Johannes Brahms (1833-1897)
Z:Adolf Friedrich von Schack (1815-1894)
Z:Creative Commons copyright waiver (CC0 1.0 Universal)
Z:
%%score 1 { 2 | ( 3 4 ) }
L:1/8
Q:1/4=90
M:3/4
K:A
V:1 treble nm="Singstimme\nVoice"
V:2 treble nm="Pianoforte"
V:3 bass 
V:4 bass 
V:1
"^Ziemlich Langsam" z6 |[Q:1/4=90] z6 | z6 | z2 z2!p! c2 | c4 c2 | d4 c2 | d4 B2 | d4 A2 | z6 | %9
w: |||Wie|wenn im|frost- gen|Wind- hauch|töd- lich||
 z2 z2 A2 | A4 A2 | c4 B2 | c4 G2 | A4 z2 | z2 z2 A2 | A4 =G2 | A4[Q:1/4=86] E2 | ^G6 | %18
w: des|Som- mers|letz- te|Blü- te|krankt,|und|hier und|da nur,|gelb|
[Q:1/4=90] z2 z2 E2 | F4 D2 | z2 z2 F2 | A6- | A4 F2 |[Q:1/4=86] D4 z2 | z2 z2[Q:1/4=90] B2 | %25
w: und|röt- lich,|ein|ein   \--|* \-   zles|Blatt,|ein|
 (d6- | d2 c2) B2 | B6 | A6 | (G2 A2 G2 | B2 A2) G2 | A6- | A2 z2 z2 | z2 z2[Q:1/4=122] d2 | %34
w: einz   \--|* * \-   les|Blatt|im|Wind   \-- * *|* * \-   hauch|schwankt,|_|so|
 (d2 =c2) _B2 | A2 =G2 A2 | =F2 D2 z2 | z2 z2 d2 | (_e2 d2) e2 | (d2 ^c2) d2 | (c2 =c2 B2 | %41
w: schau  \-- * \-  ert|ü- ber mein|Le- ben|ein|näch  .- * \-  tig|trü  \-- * \-  ber,|kal   \-- * *|
 _B2 ^F2) =G2 | d4 z2 | z2 z2 =G2 | d4 c2 | d4 A2 | (A6- | A2 _B2) =G2 | =G6 | =F2 z2 F2 | E6 | %51
w: * * \-   ter|Tag,|war-|um noch|vor dem|To   \--|* * \-   de|be   \--|\-   ben, o|Herz,|
 z2 z2 d2 | ^c4 =B2 | A4 ^A2 | =B6- | B4 =G2 | ^F4 z2 | z6 | z6 | z6 | z6 | z6 | %62
w: o|Herz mit|dei   \-- \-   nem|ew   \--|* \-   gen|Schlag!||||||
[Q:1/4=90] z2 z2 c2 | c4 c2 | d4 c2 | d4 B2 | d4 A2 | z6 | z2 z2 A2 | A4 A2 | c4 B2 | c4 G2 | %72
w: Sieh|rings ent-|blät- tert|das Ge-|stäu- de!||Was|spielst du,|wie der|Wind am|
 A4 z2 | z2 z2 A2 | A4 =G2 | A4 E2 | ^G6- | G2 z2 E2 | F4 D2 | z6 ||[M:6/4] z6 F6 | E6 D6 | %82
w: Strauch,|noch|mit der|letz- ten|wel   \--|* \-   ken|Freu- de?||Gib|dich zur|
 D6- D4 z2 | z6 d6 |[Q:1/4=86] B6- B4 z2 | A12 | (^G6- G2 A2 G2 | (2:3:2B2 A2) G6 | F4 z2 z6 | %89
w: Ruh, _|bald|stirbt, _|bald|stirbt _ _ _|_ _ sie|auch.|
 z12 | z12 | z12 |] %92
w: |||
V:2
!pp! [FA]4 [FA]2 | [EG]4 [EG]2 | [DF]4 [DF]2 | [C^E]4 [CE]2 | [C^E]4 [CE]2 | [B,^E]4 [CE]2 | %6
 [B,^E]4 [DE]2 | [A,F]4 [DF]2 | [A,F]4 [DF]2 | [A,F]4 [DF]2 | [A,F]4 [CF]2 | [G,F]4 [DF]2 | %12
 [G,^E]4 [CE]2 | [A,F]4 [CF]2 | [A,F]4 [CF]2 | [A,E]4 [CE]2 | [A,E]4 [CE]2 | [^G,E]4 [CE]2 | %18
 [G,E]4 [CE]2 |[I:staff +1] [F,D]4 [A,D]2 | [F,D]4 [A,D]2 |[I:staff -1] z2 z2 ([DF]2 | [CE]4 D2) | %23
 z2 z2 ([D=GB]2 | [=CFA]4 [B,D=G]2) | z2 z2 ([^C^E]2 | [CF]4!>(! [CG]2) | z2 z2 [DF]2 | %28
 z2 z2 [DF]2!>)! | z2 z2[I:staff +1] ([^E,C-]2 | [F,C]4 [G,C-]2 | [A,C]6-) | [A,C]6- | %33
 [A,C]4!f![I:staff -1] (3(dDd | (3DdD (3=cdD (3_BdD | (3AdD (3=GdD (3AdD) | (3(=FdD (3dDd (3DdD | %37
 (3dDd(3DdD (3_BdD) | (3(_B_e_E(3BdD(3BeE | (3_BdD(3A^cC(3BdD) |!<(! (3(AcC(3^F=c=C(3=G=B=B,!<)! | %41
!>(! (3E_B_B,(3E^FB,(3E=GB,)!>)! | (3(Fd!<(!D(3A=c=C(3G=B=B,!<)! |!>(! (3E_B_B,(3E^F!>)!B,(3EGB,) | %44
 (3(FAA,(3FAA,(3FAA, | (3FAA,(3FAA,(3FAA,) |!<(! (3=FAA,(3FAA,(3FA!<)!A, | %47
!>(! (3E=GA,(3EGA,(3E!>)!GA, |!<(! (3E=G_B,(3EGB,(3EGB,!<)! |!>(! (3D=F_B,(3DFB,(3DFB,!>)! | %50
!<(! (3DEE,(3DEE,(3DEE, | (3DEB,(3DEB,(3DEB,!<)! | (3^CEA,(3CEA,(3CEA, | (3^CEA,(3CEA,(3CEA, | %54
 (3E=G^C(3EG^C(3EG^C | (3E=G^C(3EG^C(3EG^C |!p! (^FAF"_dim."AFA | FAFAFA) | (FAFAFA | FAFAFA | %60
 EGEGEG | DFDFDF) |!pp! [C^E]4 [CE]2 | [C^E]4 [CE]2 | [B,^E]4 [CE]2 | [B,^E]4 [DE]2 | %66
 [A,F]4 [DF]2 | [A,F]4 [DF]2 | [A,F]4 [DF]2 | [A,F]4 [CF]2 | [G,F]4 [DF]2 | [G,^E]4 [CE]2 | %72
 [A,F]4 [CF]2 | [A,F]4 [CF]2 | [A,E]4 [CE]2 | [A,E]4 [CE]2 |!pp! [^G,E]4 [CE]2 | [G,E]4 [CE]2 | %78
[I:staff +1] [F,D]4 [A,D]2 | [F,D]4 [A,D]2 ||[M:6/4]!pp![I:staff -1] z6[I:staff +1] ([A,DF]6 | %81
 [=G,CE]6 [A,D]6) |!<(! ([=G,B,D]6 [F,=CD]6-!<)! |!>(! [F,CD]6!>)! [=G,B,D]4)[I:staff -1] z2 | %84
 z6 [DF]4 z2 | z6 [DF]4 z2 | z6[I:staff +1] ([^E,C-]6 | [F,C]6 [G,C]6) | [A,C]6 [C,A,C]6- | %89
!>(! [C,A,C]12!>)! | [C,A,C]12 | !fermata![C,A,C]12 |] %92
V:3
 z6 | z6 | z6 | z6 | z6 | z6 | z6 | z6 | D,,4 A,,,2 | z6 | z6 | z6 | z6 | C,,4 A,,,2 | z6 | z6 | %16
 z6 | ^G,,,6- | G,,,6 | A,,,6- | A,,,6 | z2 z2 ([D,,,D,,]2 | [E,,,E,,]4 [F,,,F,,]2) | %23
 z2 z2 ([=G,,,=G,,]2 | [A,,,A,,]4 [B,,,B,,]2) | z2 z2 ([^C,,^C,]2 | [^D,,^D,]4 [^E,,^E,]2) | %27
 z2 z2 [D,F,]2 | z2 z2 [B,,F,]2 | z2 z2 ([C,,C,-]2 | [^D,,C,]4 [^E,,C,-]2) | ([F,,C,]4 [G,,C,-]2 | %32
 [A,,C,]6-) | [A,,C,]4 D,,2 | (D,2 [=C,D,=C]2 [_B,,D,_B,]2 | [A,,D,A,]2 [=G,,D,=G,]2 [A,,D,A,]2) | %36
 ([=F,,D,=F,]2 [D,,D,]2 [F,,F,]2 | [D,,D,]2 [_B,,,_B,,]2 [_A,,,_A,,]2) | %38
 ([G,,,G,,]2 [_A,,,_A,,]2 [G,,,G,,]2 | [^G,,,^G,,]2 [=A,,,=A,,]2 [G,,,G,,]2) | %40
 ([A,,,A,,]2 D,,2 [=G,,,=G,,]2 | ^C,,6) | (D,,2 [F,,,F,,]2 [=G,,,=G,,]2 | ^C,,6) | D,,2 z2 z2 | %45
 z6 | ([A,,,A,,]4 [^G,,,^G,,]2 | [A,,,A,,]2) z2 z2 | ([_B,,,_B,,]4 [A,,,A,,]2 | %49
 [_B,,,_B,,]2) z2 z2 | (=G,,2 ^F,,2 G,,2) | (^G,,2 ^^F,,2 G,,2) | (A,,2 ^G,,2 A,,2) | z6 | %54
 (A,4 ^G,2 | A,2) z2 z2 | (D4 ^C2 | D4 A,2) | z6 | (C4 C,2 | G,4 G,,2 | B,,4 B,,,2 | %62
"^sempre" C,,2) z2 z2 | z6 | z6 | z6 | z6 | D,,4 A,,,2 | z6 | z6 | z6 | z6 | C,,4 A,,,2 | z6 | z6 | %75
 z6 | ^G,,,6- | G,,,6 | A,,,6- | A,,,6 ||[M:6/4] ([D,,,D,,]6- [D,,,D,,]6 | [E,,,E,,]6 [F,,,F,,]6) | %82
 ([=G,,,=G,,]6 [A,,,A,,]6- | [A,,,A,,]6 [B,,,B,,]4) z2 | z6 [D,F,]4 z2 | z6 [B,,F,]4 z2 | %86
 z6 ([C,,C,-]6 | [^D,,C,]6 [^E,,C,]6) | ([F,,C,-]4 [G,,C,]2 A,,6-) | (A,,4 ^E,,2 F,,4 ^B,,,2) | %90
 C,,6 A,,,6 | !fermata![F,,,F,,]12 |] %92
V:4
 x6 | x6 | x6 | x6 | x6 | x6 | x6 | x6 | x6 | x6 | x6 | x6 | x6 | x6 | x6 | x6 | x6 | x6 | x6 | %19
 x6 | x6 | x4 A,2 | =G,4 A,2 | x6 | x6 | x6 | x6 | x6 | x6 | x6 | x6 | x6 | x6 | x6 | x6 | x6 | %36
 x6 | x6 | x6 | x6 | x6 | x6 | x6 | x6 | x6 | x6 | x6 | x6 | x6 | x6 | x6 | x6 | x6 | x6 | x6 | %55
 x6 | x6 | x6 | x6 | x6 | x6 | x6 | x6 | x6 | x6 | x6 | x6 | x6 | x6 | x6 | x6 | x6 | x6 | x6 | %74
 x6 | x6 | x6 | x6 | x6 | x6 ||[M:6/4] x12 | x12 | x12 | x12 | x12 | x12 | x12 | x12 | x12 | x12 | %90
 x12 | x12 |] %92

